svg/details.svg

<?xml version="1.0" encoding="UTF-8"?>
<svg xmlns="http://www.w3.org/2000/svg" xmlns:xlink="http://www.w3.org/1999/xlink" width="32" height="32" viewBox="0 0 32 32">
<path fill-rule="nonzero" fill="rgb(0%, 0%, 0%)" fill-opacity="1" d="M 26.878906 2.558594 L 5.121094 2.558594 C 4.949219 2.558594 4.789062 2.625 4.667969 2.746094 C 4.546875 2.867188 4.480469 3.027344 4.480469 3.199219 L 4.480469 28.800781 C 4.480469 29.15625 4.765625 29.441406 5.121094 29.441406 L 26.878906 29.441406 C 27.234375 29.441406 27.519531 29.15625 27.519531 28.800781 L 27.519531 3.199219 C 27.519531 2.847656 27.234375 2.558594 26.878906 2.558594 M 10.878906 24.320312 L 8.960938 24.320312 L 8.960938 23.039062 L 10.878906 23.039062 Z M 10.878906 19.199219 L 8.960938 19.199219 L 8.960938 17.921875 L 10.878906 17.921875 Z M 10.878906 14.078125 L 8.960938 14.078125 L 8.960938 12.800781 L 10.878906 12.800781 Z M 10.878906 8.960938 L 8.960938 8.960938 L 8.960938 7.679688 L 10.878906 7.679688 Z M 23.679688 24.320312 L 12.800781 24.320312 L 12.800781 23.039062 L 23.679688 23.039062 Z M 23.679688 19.199219 L 12.800781 19.199219 L 12.800781 17.921875 L 23.679688 17.921875 Z M 23.679688 14.078125 L 12.800781 14.078125 L 12.800781 12.800781 L 23.679688 12.800781 Z M 23.679688 8.960938 L 12.800781 8.960938 L 12.800781 7.679688 L 23.679688 7.679688 Z M 23.679688 8.960938 "/>
</svg>

<svg role="img" viewBox="0 0 32 32" height="32" width="32" xmlns="http://www.w3.org/2000/svg"><path d="M26.879 2.559H5.12a.639.639 0 0 0-.64.64v25.602c0 .355.285.64.64.64h21.76c.355 0 .64-.285.64-.64V3.199a.641.641 0 0 0-.64-.64m-16 21.761H8.96v-1.28h1.918Zm0-5.12H8.96v-1.278h1.918Zm0-5.122H8.96v-1.277h1.918Zm0-5.117H8.96V7.68h1.918Zm12.8 15.36H12.802v-1.282H23.68Zm0-5.122H12.802v-1.277H23.68Zm0-5.12H12.802V12.8H23.68Zm0-5.118H12.802V7.68H23.68Zm0 0"/></svg>
